; generated by Slic3r Prusa Edition 1.41.3+win64 on 2019-04-28 at 19:20:12

; 

; external perimeters extrusion width = 0.56mm
; perimeters extrusion width = 0.56mm
; infill extrusion width = 0.56mm
; solid infill extrusion width = 0.56mm
; top infill extrusion width = 0.50mm
; first layer extrusion width = 0.70mm

M107
M104 S200 ; set temperature
G28 ; home all axes
G1 Z5 F5000 ; lift nozzle
; Filament gcode
M109 S200 ; set temperature and wait for it to be reached
G21 ; set units to millimeters
G90 ; use absolute coordinates
M82 ; use absolute distances for extrusion
G92 E0
G1 Z0.350 F7800.000
G1 E-2.00000 F2400.00000
G92 E0
G1 X79.445 Y88.979 F7800.000
G1 E2.00000 F2400.00000
G1 F1800
G1 X80.608 Y88.083 E2.04541
G1 X81.325 Y87.714 E2.07036
G1 X82.089 Y87.438 E2.09551
G1 X82.883 Y87.262 E2.12065
G1 X83.692 Y87.190 E2.14579
G1 X116.156 Y87.188 E3.15028
G1 X117.286 Y87.291 E3.18537
G1 X118.379 Y87.594 E3.22047
G1 X119.400 Y88.088 E3.25557
G1 X120.316 Y88.757 E3.29067
G1 X121.098 Y89.580 E3.32577
G1 X121.719 Y90.528 E3.36087
G1 X122.161 Y91.573 E3.39597
G1 X122.409 Y92.680 E3.43107
G1 X122.462 Y93.479 E3.45582
G1 X122.462 Y106.506 E3.85892
G1 X122.386 Y107.477 E3.88904
G1 X122.027 Y108.804 E3.93159
G1 X121.385 Y110.027 E3.97433
G1 X120.492 Y111.082 E4.01708
G1 X119.392 Y111.917 E4.05982
G1 X118.675 Y112.286 E4.08477
G1 X117.911 Y112.562 E4.10991
G1 X117.117 Y112.738 E4.13505
G1 X116.308 Y112.810 E4.16020
G1 X83.515 Y112.804 E5.17485
G1 X82.003 Y112.536 E5.22237
G1 X80.595 Y111.908 E5.27007
G1 X79.381 Y110.958 E5.31777
G1 X78.433 Y109.742 E5.36547
G1 X77.811 Y108.338 E5.41299
G1 X77.546 Y106.825 E5.46050
G1 X77.569 Y92.868 E5.89236
G1 X77.883 Y91.440 E5.93759
G1 X78.520 Y90.118 E5.98300
G1 X79.398 Y89.037 E6.02609
; PURGING FINISHED
G1 E4.02609 F2400.00000
G92 E0
G1 X114.550 Y104.900 F7800.000
G1 E2.00000 F2400.00000
G1 F1800
G1 X85.450 Y104.900 E2.90041
G1 X85.450 Y95.100 E3.20364
G1 X114.550 Y95.100 E4.10405
G1 X114.550 Y104.825 E4.40497
G1 X115.175 Y105.525 F7800.000
G1 F1800
G1 X84.825 Y105.525 E5.34404
G1 X84.825 Y94.475 E5.68595
G1 X115.175 Y94.475 E6.62503
G1 X115.175 Y105.450 E6.96462
G1 X115.800 Y106.150 F7800.000
G1 F1800
G1 X84.200 Y106.150 E7.94236
G1 X84.200 Y93.850 E8.32294
G1 X115.800 Y93.850 E9.30069
G1 X115.800 Y106.075 E9.67894
G1 X115.304 Y106.088 F7800.000
G1 E7.67894 F2400.00000
G92 E0
G1 X114.363 Y96.560 F7800.000
G1 E2.00000 F2400.00000
G1 F1800
G1 X113.371 Y95.568 E2.04370
G1 X112.481 Y95.568 E2.07145
G1 X114.082 Y97.169 E2.14199
G1 X114.082 Y98.059 E2.16973
G1 X111.591 Y95.568 E2.27951
G1 X110.701 Y95.568 E2.30725
G1 X114.082 Y98.949 E2.45626
G1 X114.082 Y99.839 E2.48400
G1 X109.811 Y95.568 E2.67225
G1 X108.920 Y95.568 E2.69999
G1 X114.082 Y100.730 E2.92747
G1 X114.082 Y101.620 E2.95521
G1 X108.030 Y95.568 E3.22192
G1 X107.140 Y95.568 E3.24966
G1 X114.082 Y102.510 E3.55560
G1 X114.082 Y103.400 E3.58335
G1 X106.250 Y95.568 E3.92852
G1 X105.360 Y95.568 E3.95626
G1 X114.082 Y104.290 E4.34067
G1 X114.082 Y104.432 E4.34508
G1 X113.333 Y104.432 E4.36842
G1 X104.470 Y95.568 E4.75906
G1 X103.580 Y95.568 E4.78680
G1 X112.443 Y104.432 E5.17745
G1 X111.553 Y104.432 E5.20519
G1 X102.689 Y95.568 E5.59584
G1 X101.799 Y95.568 E5.62358
G1 X110.662 Y104.432 E6.01422
G1 X109.772 Y104.432 E6.04197
G1 X100.909 Y95.568 E6.43261
G1 X100.019 Y95.568 E6.46035
G1 X108.882 Y104.432 E6.85100
G1 X107.992 Y104.432 E6.87874
G1 X99.129 Y95.568 E7.26939
G1 X98.239 Y95.568 E7.29713
G1 X107.102 Y104.432 E7.68778
G1 X106.212 Y104.432 E7.71552
G1 X97.349 Y95.568 E8.10616
G1 X96.458 Y95.568 E8.13390
G1 X105.322 Y104.432 E8.52455
G1 X104.432 Y104.432 E8.55229
G1 X95.568 Y95.568 E8.94294
G1 X94.678 Y95.568 E8.97068
G1 X103.541 Y104.432 E9.36133
G1 X102.651 Y104.432 E9.38907
G1 X93.788 Y95.568 E9.77971
G1 X92.898 Y95.568 E9.80746
G1 X101.761 Y104.432 E10.19810
G1 X100.871 Y104.432 E10.22584
G1 X92.008 Y95.568 E10.61649
G1 X91.118 Y95.568 E10.64423
G1 X99.981 Y104.432 E11.03488
G1 X99.091 Y104.432 E11.06262
G1 X90.228 Y95.568 E11.45326
G1 X89.337 Y95.568 E11.48101
G1 X98.201 Y104.432 E11.87165
G1 X97.310 Y104.432 E11.89939
G1 X88.447 Y95.568 E12.29004
G1 X87.557 Y95.568 E12.31778
G1 X96.420 Y104.432 E12.70843
G1 X95.530 Y104.432 E12.73617
G1 X86.667 Y95.568 E13.12681
G1 X85.918 Y95.568 E13.15014
G1 X85.918 Y95.710 E13.15456
G1 X94.640 Y104.432 E13.53896
G1 X93.750 Y104.432 E13.56670
G1 X85.918 Y96.600 E13.91187
G1 X85.918 Y97.490 E13.93961
G1 X92.860 Y104.432 E14.24555
G1 X91.970 Y104.432 E14.27329
G1 X85.918 Y98.380 E14.54000
G1 X85.918 Y99.271 E14.56774
G1 X91.079 Y104.432 E14.79521
G1 X90.189 Y104.432 E14.82295
G1 X85.918 Y100.161 E15.01119
G1 X85.918 Y101.051 E15.03893
G1 X89.299 Y104.432 E15.18794
G1 X88.409 Y104.432 E15.21568
G1 X85.918 Y101.941 E15.32545
G1 X85.918 Y102.831 E15.35319
G1 X87.519 Y104.432 E15.42373
G1 X86.629 Y104.432 E15.45147
G1 X85.637 Y103.440 E15.49517
G1 Z0.650 F7800.000
; PURGING FINISHED
G1 X114.873 Y105.223
G1 F3600
G1 X85.127 Y105.223 E16.12400
G1 X85.127 Y94.777 E16.34482
G1 X114.873 Y94.777 E16.97366
G1 X114.873 Y105.148 E17.19289
G1 X115.371 Y105.721 F7800.000
G1 F3600
G1 X84.629 Y105.721 E17.84278
G1 X84.629 Y94.279 E18.08466
G1 X115.371 Y94.279 E18.73456
G1 X115.371 Y105.646 E18.97485
G1 X115.869 Y106.219 F7800.000
G1 F1800
G1 X84.131 Y106.219 E19.64581
G1 X84.131 Y93.781 E19.90875
G1 X115.869 Y93.781 E20.57970
G1 X115.869 Y106.144 E20.84106
G1 X115.373 Y106.157 F7800.000
G1 X113.710 Y105.073
G1 F1200
G1 X114.499 Y104.284 E20.86480
G1 X114.499 Y103.575 E20.87988
G1 X113.225 Y104.849 E20.91820
G1 X112.516 Y104.849 E20.93328
G1 X114.499 Y102.866 E20.99292
G1 X114.499 Y102.157 E21.00800
G1 X111.807 Y104.849 E21.08896
G1 X111.099 Y104.849 E21.10404
G1 X114.499 Y101.449 E21.20632
G1 X114.499 Y100.740 E21.22140
G1 X110.390 Y104.849 E21.34501
G1 X109.681 Y104.849 E21.36009
G1 X114.499 Y100.031 E21.50501
G1 X114.499 Y99.322 E21.52009
G1 X108.972 Y104.849 E21.68634
G1 X108.264 Y104.849 E21.70142
G1 X114.499 Y98.614 E21.88899
G1 X114.499 Y97.905 E21.90407
G1 X107.555 Y104.849 E22.11296
G1 X106.846 Y104.849 E22.12804
G1 X114.499 Y97.196 E22.35825
G1 X114.499 Y96.487 E22.37333
G1 X106.137 Y104.849 E22.62487
G1 X105.428 Y104.849 E22.63994
G1 X114.499 Y95.778 E22.91280
G1 X114.499 Y95.151 E22.92615
G1 X114.417 Y95.151 E22.92788
G1 X104.720 Y104.849 E23.21961
G1 X104.011 Y104.849 E23.23469
G1 X113.709 Y95.151 E23.52642
G1 X113.000 Y95.151 E23.54149
G1 X103.302 Y104.849 E23.83322
G1 X102.593 Y104.849 E23.84830
G1 X112.291 Y95.151 E24.14003
G1 X111.582 Y95.151 E24.15511
G1 X101.884 Y104.849 E24.44683
G1 X101.176 Y104.849 E24.46191
G1 X110.874 Y95.151 E24.75364
G1 X110.165 Y95.151 E24.76872
G1 X100.467 Y104.849 E25.06045
G1 X99.758 Y104.849 E25.07552
G1 X109.456 Y95.151 E25.36725
G1 X108.747 Y95.151 E25.38233
G1 X99.049 Y104.849 E25.67406
G1 X98.341 Y104.849 E25.68914
G1 X108.038 Y95.151 E25.98087
G1 X107.330 Y95.151 E25.99594
G1 X97.632 Y104.849 E26.28767
G1 X96.923 Y104.849 E26.30275
G1 X106.621 Y95.151 E26.59448
G1 X105.912 Y95.151 E26.60956
G1 X96.214 Y104.849 E26.90129
G1 X95.505 Y104.849 E26.91636
G1 X105.203 Y95.151 E27.20809
G1 X104.494 Y95.151 E27.22317
G1 X94.797 Y104.849 E27.51490
G1 X94.088 Y104.849 E27.52998
G1 X103.786 Y95.151 E27.82171
G1 X103.077 Y95.151 E27.83678
G1 X93.379 Y104.849 E28.12851
G1 X92.670 Y104.849 E28.14359
G1 X102.368 Y95.151 E28.43532
G1 X101.659 Y95.151 E28.45040
G1 X91.961 Y104.849 E28.74213
G1 X91.253 Y104.849 E28.75720
G1 X100.951 Y95.151 E29.04893
G1 X100.242 Y95.151 E29.06401
G1 X90.544 Y104.849 E29.35574
G1 X89.835 Y104.849 E29.37082
G1 X99.533 Y95.151 E29.66255
G1 X98.824 Y95.151 E29.67762
G1 X89.126 Y104.849 E29.96935
G1 X88.418 Y104.849 E29.98443
G1 X98.115 Y95.151 E30.27616
G1 X97.407 Y95.151 E30.29124
G1 X87.709 Y104.849 E30.58297
G1 X87.000 Y104.849 E30.59804
G1 X96.698 Y95.151 E30.88977
G1 X95.989 Y95.151 E30.90485
G1 X86.291 Y104.849 E31.19658
G1 X85.582 Y104.849 E31.21166
G1 X95.280 Y95.151 E31.50339
G1 X94.571 Y95.151 E31.51846
G1 X85.501 Y104.221 E31.79132
G1 X85.501 Y103.513 E31.80640
G1 X93.863 Y95.151 E32.05793
G1 X93.154 Y95.151 E32.07301
G1 X85.501 Y102.804 E32.30322
G1 X85.501 Y102.095 E32.31829
G1 X92.445 Y95.151 E32.52718
G1 X91.736 Y95.151 E32.54226
G1 X85.501 Y101.386 E32.72983
G1 X85.501 Y100.678 E32.74491
G1 X91.028 Y95.151 E32.91115
G1 X90.319 Y95.151 E32.92623
G1 X85.501 Y99.969 E33.07116
G1 X85.501 Y99.260 E33.08623
G1 X89.610 Y95.151 E33.20984
G1 X88.901 Y95.151 E33.22491
G1 X85.501 Y98.551 E33.32720
G1 X85.501 Y97.842 E33.34227
G1 X88.192 Y95.151 E33.42323
G1 X87.484 Y95.151 E33.43831
G1 X85.501 Y97.134 E33.49795
G1 X85.501 Y96.425 E33.51303
G1 X86.775 Y95.151 E33.55135
G1 X86.066 Y95.151 E33.56642
G1 X85.277 Y95.940 E33.59016
G1 Z0.950 F7800.000
; PURGING FINISHED
G1 X114.873 Y105.223
G1 F3600
G1 X85.127 Y105.223 E34.21900
G1 X85.127 Y94.777 E34.43981
G1 X114.873 Y94.777 E35.06865
G1 X114.873 Y105.148 E35.28788
G1 X115.371 Y105.721 F7800.000
G1 F3600
G1 X84.629 Y105.721 E35.93778
G1 X84.629 Y94.279 E36.17965
G1 X115.371 Y94.279 E36.82955
G1 X115.371 Y105.646 E37.06984
G1 X115.869 Y106.219 F7800.000
G1 F1800
G1 X84.131 Y106.219 E37.74080
G1 X84.131 Y93.781 E38.00374
G1 X115.869 Y93.781 E38.67470
G1 X115.869 Y106.144 E38.93605
G1 X115.373 Y106.157 F7800.000
G1 X114.723 Y95.940
G1 F1200
G1 X113.934 Y95.151 E38.95979
G1 X113.225 Y95.151 E38.97487
G1 X114.499 Y96.425 E39.01319
G1 X114.499 Y97.134 E39.02827
G1 X112.516 Y95.151 E39.08791
G1 X111.807 Y95.151 E39.10299
G1 X114.499 Y97.843 E39.18395
G1 X114.499 Y98.551 E39.19903
G1 X111.099 Y95.151 E39.30132
G1 X110.390 Y95.151 E39.31639
G1 X114.499 Y99.260 E39.44000
G1 X114.499 Y99.969 E39.45508
G1 X109.681 Y95.151 E39.60001
G1 X108.972 Y95.151 E39.61508
G1 X114.499 Y100.678 E39.78133
G1 X114.499 Y101.386 E39.79641
G1 X108.264 Y95.151 E39.98398
G1 X107.555 Y95.151 E39.99906
G1 X114.499 Y102.095 E40.20795
G1 X114.499 Y102.804 E40.22303
G1 X106.846 Y95.151 E40.45325
G1 X106.137 Y95.151 E40.46832
G1 X114.499 Y103.513 E40.71986
G1 X114.499 Y104.222 E40.73494
G1 X105.428 Y95.151 E41.00779
G1 X104.720 Y95.151 E41.02287
G1 X114.417 Y104.849 E41.31460
G1 X113.709 Y104.849 E41.32968
G1 X104.011 Y95.151 E41.62141
G1 X103.302 Y95.151 E41.63648
G1 X113.000 Y104.849 E41.92821
G1 X112.291 Y104.849 E41.94329
G1 X102.593 Y95.151 E42.23502
G1 X101.884 Y95.151 E42.25010
G1 X111.582 Y104.849 E42.54183
G1 X110.874 Y104.849 E42.55690
G1 X101.176 Y95.151 E42.84863
G1 X100.467 Y95.151 E42.86371
G1 X110.165 Y104.849 E43.15544
G1 X109.456 Y104.849 E43.17052
G1 X99.758 Y95.151 E43.46225
G1 X99.049 Y95.151 E43.47732
G1 X108.747 Y104.849 E43.76905
G1 X108.038 Y104.849 E43.78413
G1 X98.341 Y95.151 E44.07586
G1 X97.632 Y95.151 E44.09094
G1 X107.330 Y104.849 E44.38267
G1 X106.621 Y104.849 E44.39774
G1 X96.923 Y95.151 E44.68947
G1 X96.214 Y95.151 E44.70455
G1 X105.912 Y104.849 E44.99628
G1 X105.203 Y104.849 E45.01135
G1 X95.505 Y95.151 E45.30308
G1 X94.797 Y95.151 E45.31816
G1 X104.494 Y104.849 E45.60989
G1 X103.786 Y104.849 E45.62497
G1 X100.825 Y101.888 E45.71403
G1 X100.922 Y102.262 E45.72225
G1 X101.012 Y102.784 E45.73352
G1 X103.077 Y104.849 E45.79563
G1 X102.368 Y104.849 E45.81071
G1 X101.057 Y103.538 E45.85014
G1 X101.014 Y104.203 E45.86432
G1 X101.659 Y104.849 E45.88374
G1 X100.951 Y104.849 E45.89882
G1 X100.718 Y104.617 E45.90580
G1 X100.556 Y101.935 F7800.000
G1 F900
G1 X97.230 Y98.609 E45.99502
G1 X96.754 Y98.451 E46.00454
G1 X96.344 Y98.354 E46.01253
G1 X100.496 Y102.506 E46.12391
G1 X100.583 Y103.226 E46.13766
G1 X95.624 Y98.267 E46.27068
G1 X94.997 Y98.271 E46.28258
G1 X100.579 Y103.853 E46.43231
G1 X100.510 Y104.417 E46.44307
G1 X94.433 Y98.340 E46.60608
G1 X94.415 Y98.343 E46.60643
G1 X93.920 Y98.459 E46.61607
G1 X100.342 Y104.880 E46.78833
G1 X99.710 Y104.880 E46.80032
G1 X93.446 Y98.617 E46.96832
G1 X93.009 Y98.811 E46.97741
G1 X99.078 Y104.880 E47.14020
G1 X98.445 Y104.880 E47.15219
G1 X92.603 Y99.037 E47.30892
G1 X92.226 Y99.293 E47.31755
G1 X97.813 Y104.880 E47.46743
G1 X97.181 Y104.880 E47.47942
G1 X91.877 Y99.576 E47.62171
G1 X91.555 Y99.886 E47.63019
G1 X96.549 Y104.880 E47.76417
G1 X95.917 Y104.880 E47.77616
G1 X91.260 Y100.223 E47.90108
G1 X90.993 Y100.588 E47.90966
G1 X95.285 Y104.880 E48.02480
G1 X94.653 Y104.880 E48.03679
G1 X90.754 Y100.981 E48.14138
G1 X90.546 Y101.405 E48.15034
G1 X94.021 Y104.880 E48.24355
G1 X93.389 Y104.880 E48.25553
G1 X90.372 Y101.863 E48.33648
G1 X90.235 Y102.358 E48.34624
G1 X92.757 Y104.880 E48.41388
G1 X92.125 Y104.880 E48.42587
G1 X90.144 Y102.899 E48.47902
G1 X90.109 Y103.496 E48.49037
G1 X91.493 Y104.880 E48.52749
G1 X90.861 Y104.880 E48.53948
G1 X89.932 Y103.951 E48.56441
G1 X86.290 Y105.073 F7800.000
G1 F1200
G1 X85.501 Y104.284 E48.58815
G1 X85.501 Y103.575 E48.60322
G1 X86.775 Y104.849 E48.64154
G1 X87.484 Y104.849 E48.65662
G1 X85.501 Y102.866 E48.71626
G1 X85.501 Y102.158 E48.73133
G1 X88.192 Y104.849 E48.81230
G1 X88.901 Y104.849 E48.82737
G1 X85.501 Y101.449 E48.92965
G1 X85.501 Y100.740 E48.94473
G1 X89.610 Y104.849 E49.06833
G1 X89.804 Y104.849 E49.07246
G1 X89.688 Y104.218 E49.08611
G1 X85.501 Y100.031 E49.21205
G1 X85.501 Y99.322 E49.22713
G1 X89.643 Y103.464 E49.35171
G1 X89.686 Y102.798 E49.36590
G1 X85.501 Y98.614 E49.49178
G1 X85.501 Y97.905 E49.50686
G1 X89.793 Y102.197 E49.63597
G1 X89.952 Y101.647 E49.64814
G1 X85.501 Y97.196 E49.78203
G1 X85.501 Y96.487 E49.79711
G1 X90.153 Y101.140 E49.93706
G1 X90.393 Y100.670 E49.94827
G1 X85.501 Y95.779 E50.09542
G1 X85.501 Y95.151 E50.10877
G1 X85.582 Y95.151 E50.11050
G1 X90.668 Y100.236 E50.26348
G1 X90.975 Y99.835 E50.27423
G1 X86.291 Y95.151 E50.41513
G1 X87.000 Y95.151 E50.43021
G1 X91.314 Y99.465 E50.55997
G1 X91.683 Y99.126 E50.57064
G1 X87.709 Y95.151 E50.69021
G1 X88.418 Y95.151 E50.70528
G1 X92.085 Y98.818 E50.81560
G1 X92.519 Y98.544 E50.82653
G1 X89.126 Y95.151 E50.92860
G1 X89.835 Y95.151 E50.94368
G1 X92.988 Y98.304 E51.03853
G1 X93.495 Y98.102 E51.05013
G1 X90.544 Y95.151 E51.13891
G1 X91.253 Y95.151 E51.15398
G1 X94.045 Y97.944 E51.23799
G1 X94.646 Y97.836 E51.25098
G1 X91.961 Y95.151 E51.33175
G1 X92.670 Y95.151 E51.34683
G1 X95.312 Y97.792 E51.42629
G1 X95.693 Y97.803 E51.43440
G1 X96.066 Y97.838 E51.44237
G1 X93.379 Y95.151 E51.52319
G1 X94.088 Y95.151 E51.53827
G1 X97.320 Y98.383 E51.63549
G1 X98.014 Y98.761 F7800.000
G1 F900
G1 X100.089 Y100.835 E51.69114
M106 S206.55
G1 Z1.250 F7800.000
; PURGING FINISHED
G1 X114.873 Y105.223
G1 F3600
G1 X98.652 Y105.223 E52.03406
G1 X98.826 Y104.889 E52.04201
G1 X99.032 Y104.170 E52.05782
G1 X99.092 Y103.425 E52.07363
G1 X99.002 Y102.683 E52.08943
G1 X98.767 Y101.973 E52.10524
G1 X98.395 Y101.324 E52.12105
G1 X97.902 Y100.762 E52.13685
G1 X97.307 Y100.310 E52.15266
G1 X96.634 Y99.984 E52.16847
G1 X95.920 Y99.802 E52.18403
G1 X95.287 Y99.759 E52.19747
G1 X94.568 Y99.840 E52.21275
G1 X93.857 Y100.068 E52.22853
G1 X93.205 Y100.433 E52.24434
G1 X92.638 Y100.920 E52.26014
G1 X92.179 Y101.511 E52.27595
G1 X91.847 Y102.181 E52.29176
G1 X91.655 Y102.903 E52.30756
G1 X91.611 Y103.637 E52.32310
G1 X91.686 Y104.256 E52.33629
G1 X91.903 Y104.958 E52.35182
G1 X92.047 Y105.223 E52.35819
G1 X85.127 Y105.223 E52.50448
G1 X85.127 Y94.777 E52.72530
G1 X114.873 Y94.777 E53.35413
G1 X114.873 Y105.148 E53.57337
G1 X115.371 Y105.721 F7800.000
G1 F3600
G1 X97.703 Y105.721 E53.94688
G1 X98.061 Y105.278 E53.95893
G1 X98.361 Y104.703 E53.97262
G1 X98.540 Y104.081 E53.98631
G1 X98.592 Y103.435 E54.00000
G1 X98.514 Y102.792 E54.01370
G1 X98.310 Y102.177 E54.02739
G1 X97.988 Y101.615 E54.04108
G1 X97.561 Y101.129 E54.05477
G1 X97.045 Y100.736 E54.06847
G1 X96.462 Y100.455 E54.08216
G1 X95.841 Y100.296 E54.09571
G1 X95.298 Y100.259 E54.10723
G1 X94.673 Y100.329 E54.12051
G1 X94.057 Y100.527 E54.13419
G1 X93.492 Y100.843 E54.14788
G1 X93.001 Y101.265 E54.16158
G1 X92.604 Y101.777 E54.17527
G1 X92.316 Y102.357 E54.18896
G1 X92.149 Y102.983 E54.20265
G1 X92.111 Y103.622 E54.21618
G1 X92.175 Y104.152 E54.22747
G1 X92.364 Y104.763 E54.24099
G1 X92.675 Y105.331 E54.25469
G1 X93.003 Y105.721 E54.26545
G1 X84.629 Y105.721 E54.44246
G1 X84.629 Y94.279 E54.68434
